symbolic/24x24/apps/brave-browser-nightly.svg

<svg xmlns="http://www.w3.org/2000/svg" width="24" height="24" version="1.1">
 <path style="opacity:0.2" d="M 8.679,1.5004 6.9121,3.7724 C 6.8886,3.7801 6.716,3.636 6.5277,3.5807 6.0229,3.4324 5.3821,3.4577 4.9467,3.6555 4.6619,3.7849 4.5515,3.876 3.8742,4.5415 3.1441,5.2587 3,5.4309 3,5.5832 3,5.6227 3.2638,6.0077 3.3937,6.3092 L 3.6293,6.8578 3.3265,7.6884 C 3.1601,8.1451 3.0164,8.5439 3.0062,8.5753 2.9804,8.6554 5.344,17.284 5.4675,17.577 5.6917,18.109 6.0442,18.587 6.5008,18.978 6.9131,19.331 11.097,22.186 11.511,22.397 11.634,22.46 11.831,22.496 12,22.5 12.169,22.496 12.366,22.46 12.489,22.397 12.903,22.186 17.087,19.331 17.499,18.978 17.956,18.587 18.308,18.109 18.532,17.577 18.656,17.284 21.02,8.6554 20.994,8.5753 20.984,8.5439 20.84,8.1451 20.673,7.6884 L 20.371,6.8578 20.606,6.3092 C 20.736,6.0077 21,5.6227 21,5.5832 21,5.4309 20.856,5.2587 20.126,4.5415 19.448,3.876 19.338,3.7849 19.053,3.6555 18.618,3.4577 17.977,3.4324 17.472,3.5807 17.284,3.636 17.111,3.7801 17.088,3.7724 L 15.321,1.5004 H 12 Z"/>
 <path style="fill:#ab47bc" d="M 8.679,1.0004 6.9121,3.2724 C 6.8886,3.2801 6.716,3.136 6.5277,3.0807 6.0229,2.9324 5.3821,2.9577 4.9467,3.1555 4.6619,3.2849 4.5515,3.376 3.8742,4.0415 3.1441,4.7587 3,4.9309 3,5.0832 3,5.1227 3.2638,5.5077 3.3937,5.8092 L 3.6293,6.3578 3.3265,7.1884 C 3.1601,7.6451 3.0164,8.0439 3.0062,8.0753 2.9804,8.1554 5.344,16.784 5.4675,17.077 5.6917,17.609 6.0442,18.087 6.5008,18.478 6.9131,18.831 11.097,21.686 11.511,21.897 11.634,21.96 11.831,21.996 12,22 12.169,21.996 12.366,21.96 12.489,21.897 12.903,21.686 17.087,18.831 17.499,18.478 17.956,18.087 18.308,17.609 18.532,17.077 18.656,16.784 21.02,8.1554 20.994,8.0753 20.984,8.0439 20.84,7.6451 20.673,7.1884 L 20.371,6.3578 20.606,5.8092 C 20.736,5.5077 21,5.1227 21,5.0832 21,4.9309 20.856,4.7587 20.126,4.0415 19.448,3.376 19.338,3.2849 19.053,3.1555 18.618,2.9577 17.977,2.9324 17.472,3.0807 17.284,3.136 17.111,3.2801 17.088,3.2724 L 15.321,1.0004 H 12 Z"/>
 <path style="opacity:0.2" d="M 14.413,16.325 C 14.844,16.011 14.912,15.931 14.841,15.82 14.785,15.731 13.397,15.035 12.733,14.763 12.036,14.476 11.962,14.476 11.285,14.759 10.678,15.01 9.3122,15.699 9.1976,15.812 9.0792,15.928 9.1388,16.035 9.4371,16.241 10.3,16.642 11,17.5 11.999,17.5 13,17.5 13.587,16.755 14.413,16.325 Z M 9.5701,14.97 C 10.403,14.571 10.528,14.488 11.164,13.913 11.7,13.43 11.799,13.286 11.723,13.103 11.697,13.041 11.295,12.662 10.829,12.262 9.7276,11.315 9.7737,11.448 10.193,10.421 10.442,9.8108 10.506,9.6066 10.506,9.4375 10.504,9.182 10.411,8.9901 10.224,8.8576 10.149,8.8035 9.4833,8.5303 8.7459,8.2495 8.0085,7.9687 7.4094,7.7206 7.4146,7.6978 7.4264,7.6457 8.2396,7.5557 8.8299,7.5406 L 9.2764,7.5293 10.097,7.8218 C 10.814,8.0768 10.926,8.129 10.98,8.2327 11.014,8.2981 11.041,8.3858 11.04,8.4277 11.04,8.4697 10.907,9.0759 10.745,9.7749 10.462,10.999 10.454,11.049 10.528,11.124 10.645,11.242 11.79,11.518 12.147,11.49 12.555,11.459 13.389,11.204 13.474,11.119 13.542,11.05 13.529,10.972 13.252,9.7746 13.09,9.0756 12.957,8.4693 12.956,8.4274 12.956,8.3854 12.983,8.2974 13.017,8.2316 13.071,8.1281 13.177,8.0771 13.815,7.8498 14.843,7.4829 14.822,7.4859 15.756,7.5705 16.192,7.6102 16.566,7.659 16.588,7.6794 16.61,7.702 16.585,7.7327 16.524,7.7561 16.467,7.7788 15.866,8.0081 15.188,8.2675 14.509,8.5271 13.883,8.7862 13.796,8.8436 13.592,8.9785 13.492,9.1712 13.491,9.4357 13.49,9.6031 13.554,9.8057 13.797,10.396 13.965,10.808 14.103,11.184 14.103,11.231 14.103,11.422 13.964,11.576 13.19,12.24 12.745,12.622 12.35,12.99 12.312,13.059 12.275,13.127 12.253,13.232 12.264,13.291 12.284,13.393 12.817,13.918 13.359,14.371 13.587,14.561 14.967,15.442 15.188,15.477 15.373,15.507 15.571,15.226 15.895,14.952 16.213,14.683 16.402,14.415 16.53,14.05 16.651,13.708 16.621,13.477 16.382,12.923 16.2,12.5 16.152,12.267 16.213,12.109 16.227,12.071 16.72,11.597 17.308,11.052 18.589,9.8648 18.895,9.6522 18.965,9.4401 19.043,9.2046 18.988,8.8945 18.813,8.5825 18.394,7.8364 16.655,5.5002 16.507,5.5002 15.746,5.6241 15.11,5.8988 14.308,6.025 14.245,6.0251 13.977,5.9581 13.712,5.8761 12.583,5.5265 12.217,5.5001 11.998,5.5001 11.78,5.5001 11.413,5.5265 10.284,5.8761 10.02,5.9581 9.7487,6.025 9.6822,6.025 8.8923,5.9086 8.3067,5.595 7.489,5.5 7.3615,5.5862 6.2304,7.1687 5.7621,7.8601 5.2114,8.6732 5.0557,8.7778 5.0109,9.0873 4.9483,9.5206 5.1076,9.5935 6.7529,11.115 7.3063,11.626 7.7704,12.074 7.7842,12.11 7.8459,12.27 7.7971,12.512 7.6177,12.936 7.3712,13.517 7.3491,13.679 7.4681,14.03 7.5974,14.412 7.8167,14.72 8.1479,14.987 8.4559,15.235 8.5751,15.483 8.7568,15.487 8.8218,15.489 9.1878,15.153 9.5701,14.97 Z"/>
 <path style="fill:#ffffff" d="M 14.413,15.825 C 14.844,15.511 14.912,15.431 14.841,15.32 14.785,15.231 13.397,14.535 12.733,14.263 12.036,13.976 11.962,13.976 11.285,14.259 10.678,14.51 9.3122,15.199 9.1976,15.312 9.0792,15.428 9.1388,15.535 9.4371,15.741 10.3,16.142 11,17 11.999,17 13,17 13.587,16.255 14.413,15.825 Z M 9.5701,14.47 C 10.403,14.071 10.528,13.988 11.164,13.413 11.7,12.93 11.799,12.786 11.723,12.603 11.697,12.541 11.295,12.162 10.829,11.762 9.7276,10.815 9.7737,10.948 10.193,9.921 10.442,9.3108 10.506,9.1066 10.506,8.9375 10.504,8.682 10.411,8.4901 10.224,8.3576 10.149,8.3035 9.4833,8.0303 8.7459,7.7495 8.0085,7.4687 7.4094,7.2206 7.4146,7.1978 7.4264,7.1457 8.2396,7.0557 8.8299,7.0406 L 9.2764,7.0293 10.097,7.3218 C 10.814,7.5768 10.926,7.629 10.98,7.7327 11.014,7.7981 11.041,7.8858 11.04,7.9277 11.04,7.9697 10.907,8.5759 10.745,9.2749 10.462,10.499 10.454,10.549 10.528,10.624 10.645,10.742 11.79,11.018 12.147,10.99 12.555,10.959 13.389,10.704 13.474,10.619 13.542,10.55 13.529,10.472 13.252,9.2746 13.09,8.5756 12.957,7.9693 12.956,7.9274 12.956,7.8854 12.983,7.7974 13.017,7.7316 13.071,7.6281 13.177,7.5771 13.815,7.3498 14.843,6.9829 14.822,6.9859 15.756,7.0705 16.192,7.1102 16.566,7.159 16.588,7.1794 16.61,7.202 16.585,7.2327 16.524,7.2561 16.467,7.2788 15.866,7.5081 15.188,7.7675 14.509,8.0271 13.883,8.2862 13.796,8.3436 13.592,8.4785 13.492,8.6712 13.491,8.9357 13.49,9.1031 13.554,9.3057 13.797,9.8964 13.965,10.308 14.103,10.684 14.103,10.731 14.103,10.922 13.964,11.076 13.19,11.74 12.745,12.122 12.35,12.49 12.312,12.559 12.275,12.627 12.253,12.732 12.264,12.791 12.284,12.893 12.817,13.418 13.359,13.871 13.587,14.061 14.967,14.942 15.188,14.977 15.373,15.007 15.571,14.726 15.895,14.452 16.213,14.183 16.402,13.915 16.53,13.55 16.651,13.208 16.621,12.977 16.382,12.423 16.2,12 16.152,11.767 16.213,11.609 16.227,11.571 16.72,11.097 17.308,10.552 18.589,9.3648 18.895,9.1522 18.965,8.9401 19.043,8.7046 18.988,8.3945 18.813,8.0825 18.394,7.3364 16.655,5.0002 16.507,5.0002 15.746,5.1241 15.11,5.3988 14.308,5.525 14.245,5.5251 13.977,5.4581 13.712,5.3761 12.583,5.0265 12.217,5.0001 11.998,5.0001 11.78,5.0001 11.413,5.0265 10.284,5.3761 10.02,5.4581 9.7487,5.525 9.6822,5.525 8.8923,5.4086 8.3067,5.095 7.489,5 7.3615,5.0862 6.2304,6.6687 5.7621,7.3601 5.2114,8.1732 5.0557,8.2778 5.0109,8.5873 4.9483,9.0206 5.1076,9.0935 6.7529,10.615 7.3063,11.126 7.7704,11.574 7.7842,11.61 7.8459,11.77 7.7971,12.012 7.6177,12.436 7.3712,13.017 7.3491,13.179 7.4681,13.53 7.5974,13.912 7.8167,14.22 8.1479,14.487 8.4559,14.735 8.5751,14.983 8.7568,14.987 8.8218,14.989 9.1878,14.653 9.5701,14.47 Z"/>
 <path style="opacity:0.1;fill:#ffffff" d="M 8.6797,1 6.9121,3.2715 C 6.8887,3.2792 6.7157,3.1354 6.5273,3.0801 6.0226,2.9318 5.3826,2.9584 4.9473,3.1562 4.6625,3.2856 4.5523,3.3755 3.875,4.041 3.1449,4.7583 3,4.9316 3,5.084 3,5.0969 3.0861,5.25 3.1289,5.3223 3.2467,5.1703 3.4613,4.9475 3.875,4.541 4.5523,3.8755 4.6625,3.7856 4.9473,3.6562 5.3826,3.4584 6.0226,3.4318 6.5273,3.5801 6.7157,3.6354 6.8887,3.7792 6.9121,3.7715 L 8.6797,1.5 H 12 15.32 L 17.088,3.7715 C 17.111,3.7792 17.284,3.6354 17.473,3.5801 17.977,3.4318 18.617,3.4584 19.053,3.6562 19.338,3.7856 19.448,3.8755 20.125,4.541 20.539,4.9475 20.753,5.1703 20.871,5.3223 20.914,5.25 21,5.0969 21,5.084 21,4.9316 20.855,4.7583 20.125,4.041 19.448,3.3755 19.338,3.2856 19.053,3.1562 18.617,2.9584 17.977,2.9318 17.473,3.0801 17.284,3.1354 17.111,3.2792 17.088,3.2715 L 15.32,1 H 12 Z M 3.5312,6.627 3.3262,7.1875 C 3.1597,7.6443 3.0161,8.0448 3.0059,8.0762 3.005,8.0788 3.078,8.3432 3.082,8.3633 3.1336,8.2191 3.1996,8.0349 3.3262,7.6875 L 3.6289,6.8574 Z M 20.469,6.627 20.371,6.8574 20.674,7.6875 C 20.8,8.0349 20.866,8.2191 20.918,8.3633 20.922,8.3432 20.995,8.0788 20.994,8.0762 20.984,8.0448 20.84,7.6443 20.674,7.1875 Z"/>
</svg>

<svg xmlns="http://www.w3.org/2000/svg" width="24" height="24"><path style="opacity:.2" d="M8.679 1.5 6.912 3.772c-.023.008-.196-.136-.384-.191-.505-.149-1.146-.123-1.581.075-.285.129-.396.22-1.073.885-.73.718-.874.89-.874 1.042 0 .04.264.425.394.726l.235.549-.303.83c-.166.457-.31.856-.32.887-.026.08 2.338 8.709 2.462 9.002.224.532.576 1.01 1.033 1.401.412.353 4.596 3.208 5.01 3.419.123.063.32.099.489.103.169-.004.366-.04.489-.103.414-.211 4.598-3.066 5.01-3.419a3.774 3.774 0 0 0 1.033-1.401c.124-.293 2.488-8.922 2.462-9.002-.01-.031-.154-.43-.321-.887l-.302-.83.235-.549c.13-.301.394-.686.394-.726 0-.152-.144-.324-.874-1.042-.678-.665-.788-.756-1.073-.886-.435-.197-1.076-.223-1.581-.074-.188.055-.361.2-.384.191L15.321 1.5H12z"/><path style="fill:#ab47bc" d="M8.679 1 6.912 3.272c-.023.008-.196-.136-.384-.191-.505-.149-1.146-.123-1.581.075-.285.129-.396.22-1.073.885-.73.718-.874.89-.874 1.042 0 .04.264.425.394.726l.235.549-.303.83c-.166.457-.31.856-.32.887-.026.08 2.338 8.709 2.462 9.002.224.532.576 1.01 1.033 1.401.412.353 4.596 3.208 5.01 3.419.123.063.32.099.489.103.169-.004.366-.04.489-.103.414-.211 4.598-3.066 5.01-3.419a3.774 3.774 0 0 0 1.033-1.401c.124-.293 2.488-8.922 2.462-9.002-.01-.031-.154-.43-.321-.887l-.302-.83.235-.549c.13-.301.394-.686.394-.726 0-.152-.144-.324-.874-1.042-.678-.665-.788-.756-1.073-.886-.435-.197-1.076-.223-1.581-.074-.188.055-.361.2-.384.191L15.321 1H12z"/><path style="opacity:.2" d="M14.413 16.325c.431-.314.499-.394.428-.505-.056-.089-1.444-.785-2.108-1.057-.697-.287-.771-.287-1.448-.004-.607.251-1.973.94-2.087 1.053-.119.116-.06.223.24.429.862.401 1.562 1.259 2.561 1.259 1.001 0 1.588-.745 2.414-1.175zM9.57 14.97c.833-.399.958-.482 1.594-1.057.536-.483.635-.627.559-.81-.026-.062-.428-.441-.894-.841-1.101-.947-1.055-.814-.636-1.841.249-.61.313-.814.313-.983-.002-.256-.095-.448-.282-.58-.075-.055-.74-.328-1.478-.609-.738-.28-1.337-.528-1.331-.551.011-.052.825-.142 1.415-.157l.446-.012.821.293c.717.255.829.307.883.41a.52.52 0 0 1 .06.196c0 .042-.133.648-.295 1.347-.283 1.224-.291 1.274-.217 1.349.117.118 1.262.394 1.619.366.408-.031 1.242-.286 1.327-.371.068-.069.055-.147-.222-1.344a33.778 33.778 0 0 1-.296-1.348.55.55 0 0 1 .061-.195c.054-.104.16-.155.798-.382 1.028-.367 1.007-.364 1.941-.28.436.04.81.089.832.11.022.022-.003.053-.064.076-.057.023-.658.252-1.336.511-.679.26-1.305.52-1.392.577-.204.135-.304.327-.305.592-.001.167.063.37.306.96.168.412.306.788.306.835 0 .191-.139.345-.913 1.009-.445.382-.84.75-.878.819a.421.421 0 0 0-.048.232c.02.102.553.627 1.095 1.08.228.19 1.608 1.071 1.829 1.106.185.03.383-.251.707-.525.318-.269.507-.537.635-.902.121-.342.091-.573-.148-1.127-.182-.423-.23-.656-.169-.814.014-.038.507-.512 1.095-1.057 1.281-1.187 1.587-1.4 1.657-1.612.078-.235.023-.545-.152-.857-.419-.747-2.158-3.083-2.306-3.083-.761.124-1.397.399-2.199.525-.063 0-.331-.067-.596-.149-1.129-.35-1.495-.376-1.714-.376-.218 0-.585.027-1.714.376-.264.082-.535.149-.602.149-.79-.116-1.375-.43-2.193-.525-.127.086-1.259 1.669-1.727 2.36-.55.813-.706.918-.751 1.227-.063.434.097.507 1.742 2.028.553.511 1.017.959 1.031.995.062.16.013.402-.166.826-.247.581-.269.743-.15 1.094.13.382.349.69.68.957.308.248.427.496.609.5.065.002.43-.334.813-.517z"/><path style="fill:#fff" d="M14.413 15.825c.431-.314.499-.394.428-.505-.056-.089-1.444-.785-2.108-1.057-.697-.287-.771-.287-1.448-.004-.607.251-1.973.94-2.087 1.053-.119.116-.06.223.24.429C10.3 16.142 11 17 11.998 17c1.001 0 1.588-.745 2.414-1.175zM9.57 14.47c.833-.399.958-.482 1.594-1.057.536-.483.635-.627.559-.81-.026-.062-.428-.441-.894-.841-1.101-.947-1.055-.814-.636-1.841.249-.61.313-.814.313-.983-.002-.256-.095-.448-.282-.58-.075-.055-.74-.328-1.478-.609-.738-.28-1.337-.528-1.331-.551.011-.052.825-.142 1.415-.157l.446-.012.821.293c.717.255.829.307.883.41a.52.52 0 0 1 .06.196c0 .042-.133.648-.295 1.347-.283 1.224-.291 1.274-.217 1.349.117.118 1.262.394 1.619.366.408-.031 1.242-.286 1.327-.371.068-.069.055-.147-.222-1.344a33.778 33.778 0 0 1-.296-1.348.55.55 0 0 1 .061-.195c.054-.104.16-.155.798-.382 1.028-.367 1.007-.364 1.941-.28.436.04.81.089.832.11.022.022-.003.053-.064.076-.057.023-.658.252-1.336.511-.679.26-1.305.52-1.392.577-.204.135-.304.327-.305.592-.001.167.063.37.306.96.168.412.306.788.306.835 0 .191-.139.345-.913 1.009-.445.382-.84.75-.878.819a.421.421 0 0 0-.048.232c.02.102.553.627 1.095 1.08.228.19 1.608 1.071 1.829 1.106.185.03.383-.251.707-.525.318-.269.507-.537.635-.902.121-.342.091-.573-.148-1.127-.182-.423-.23-.656-.169-.814.014-.038.507-.512 1.095-1.057 1.281-1.187 1.587-1.4 1.657-1.612.078-.235.023-.545-.152-.857C18.394 7.335 16.655 5 16.507 5c-.761.124-1.397.399-2.199.525-.063 0-.331-.067-.596-.149C12.583 5.026 12.217 5 11.998 5c-.218 0-.585.027-1.714.376-.264.082-.535.149-.602.149-.79-.116-1.375-.43-2.193-.525-.127.086-1.259 1.669-1.727 2.36-.55.813-.706.918-.751 1.227-.063.434.097.507 1.742 2.028.553.511 1.017.959 1.031.995.062.16.013.402-.166.826-.247.581-.269.743-.15 1.094.13.382.349.69.68.957.308.248.427.496.609.5.065.002.43-.334.813-.517z"/><path style="opacity:.1;fill:#fff" d="M8.68 1 6.912 3.272c-.023.007-.196-.137-.385-.192-.504-.148-1.144-.122-1.58.076-.285.13-.395.22-1.072.885-.73.717-.875.89-.875 1.043 0 .013.086.166.129.238.118-.152.332-.375.746-.781.677-.666.787-.755 1.072-.885.436-.198 1.076-.224 1.58-.076.189.055.362.2.385.192L8.68 1.5h6.64l1.768 2.272c.023.007.196-.137.385-.192.504-.148 1.144-.122 1.58.076.285.13.395.22 1.072.885.414.406.628.63.746.781.043-.072.129-.225.129-.238 0-.152-.145-.326-.875-1.043-.677-.666-.787-.755-1.072-.885-.436-.198-1.076-.224-1.58-.076-.189.055-.362.2-.385.192L15.32 1H12zM3.53 6.627l-.205.56c-.166.457-.31.858-.32.89-.001.002.072.266.076.286l.244-.675.303-.83zm16.938 0-.098.23.303.83.244.676c.004-.02.077-.284.076-.287-.01-.031-.154-.432-.32-.889z"/></svg>
